X:1
T:I Come to Thee
T:I Come to Thee
T:Charles Hutchinson Gabriel
T:Anna D. Bradley, 1890
T:Public Domain Courtesy of the Cyber Hymnal™
C:Charles Hutchinson Gabriel
Z:Public Domain
Z:Courtesy of the Cyber Hymnal™
%%score ( 1 2 ) ( 3 4 )
L:1/8
Q:1/4=100
M:6/8
K:C
V:1 treble 
V:2 treble 
V:3 bass 
V:4 bass 
V:1
 [CE][CE][DF] [EG]2 [Cc] | [DB]2 [Fd] [Fd]2 [Ac] | [GB]2 [FA] [EG]2 [DF] | [CE]2 [EG] [EG]3 | %4
w: 1.~Just as I am, a|lit- tle one, I|trust my- self to|God’s dear Son;|
w: 2.~Just as I am, be-|fore I know The|paths that lead to|sin and woe,|
w: 3.~Just as I am, no|need to say I’ll|wait for yet an-|o- ther day,|
w: 4.~Just as I am, I’m|not a- fraid: The|way so ea- sy|has been made;|
 [CE][CE][DF] [EG]2 [Cc] | [DB]2 [Gd] [Gd]2 [GB] | ([^FA][GB])[Ac] [GB]2 [FA] | G3- G2 || %8
w: It mat- ters not what|I have done, Oh,|lov- * ing Christ, I|come. *|
w: Just as I’d to my|mo- ther go, To|Thee, * dear Christ, I|come. *|
w: For ti- ny feet may|go a- stray, So|now * to Christ I|come. *|
w: For it was Christ Him-|self who said, “Let|lit- * tle child- ren|come.” *|
"^Refrain" G | d3 (BA)[FB] | [Ec]2 [FA] [EG]3 | [DF][EG][FA] [GB]2 [FA] | [EG]2 [DF] [CE]2 G | %13
w: |||||
w: I|come, I * come,|I come, Trust-|ing my- self to God’s|dear Son; I come,|
w: |||||
w: |||||
 d3 (BA)[FB] | [Ec]2 [FA] [EG]2 G | (AB)[Fc] [FB]2 [FG] | [Ec]3- [Ec]2 |] %17
w: ||||
w: I come, * I|come, Oh, lov- ing|Christ, * I come. *||
w: ||||
w: ||||
V:2
 x6 | x6 | x6 | x6 | x6 | x6 | x6 | G3- G2 || G | (F2 F F2) x | x6 | x6 | x5 G | (F2 F F2) x | %14
 x5 G | F2 x4 | x5 |] %17
V:3
 [C,G,][C,G,][C,G,] [C,C]2 [E,G,] | [G,B,]2 [G,B,] [G,B,]2 G, | G,2 G, G,2 G, | %3
w: ~ ~ ~ ~ ~|~ ~ ~ ~|~ ~ ~ ~|
 [C,G,]2 [C,C] [C,C]3 | [C,G,][C,G,][C,G,] [C,C]2 [E,G,] | G,2 [G,B,] [G,B,]2 [G,D] | %6
w: ~ ~ ~|~ ~ ~ ~ ~|~ ~ ~ ~|
 [D,D]2 [D,D] [D,D]2 [D,D] | [G,B,]3- [G,B,]2 || [G,B,] | [G,B,]2 [G,B,] [G,D]2 [G,D] | %10
w: ~ ~ ~ ~|~ *|~|~ ~ I come,|
 [C,C]2 [C,C] [C,C]3 | G,G,G, G,2 [G,B,] | [C,C]2 [C,G,] [C,G,]2 [E,C] | %13
w: ~ ~ ~|~ ~ ~ ~ ~|~ ~ ~ ~|
 [G,B,]2 [G,B,] [G,D]2 [G,D] | [C,C]2 [C,C] [C,C]2 [E,C] | [F,C]2 [F,A,] G,2 G, | %16
w: ~ ~ I come,|||
 [C,G,]3- [C,G,]2 |] %17
w: |
V:4
 x6 | x5 G, | G,2 G, G,2 G, | x6 | x6 | G,2 x4 | x6 | x5 || x | x6 | x6 | G,G,G, G,2 x | x6 | x6 | %14
 x6 | x3 G,2 G, | x5 |] %17

